; generated by PrusaSlicer 2.3.0+win64 on 2021-04-28 at 05:40:04 UTC

; 

; external perimeters extrusion width = 0.45mm
; perimeters extrusion width = 0.45mm
; infill extrusion width = 0.45mm
; solid infill extrusion width = 0.45mm
; top infill extrusion width = 0.40mm
; first layer extrusion width = 0.42mm

M107
M190 S60 ; set bed temperature and wait for it to be reached
M104 S207 ; set temperature
;TYPE:Custom
G28 ; home all axes
G1 Z5 F5000 ; lift nozzle
M109 S207 ; set temperature and wait for it to be reached
G21 ; set units to millimeters
G90 ; use absolute coordinates
M82 ; use absolute distances for extrusion
G92 E0
; Filament gcode
;LAYER_CHANGE
;Z:0.35
;HEIGHT:0.35
G1 Z0.350 F8700.000
G1 E-2.00000 F2400.000
G92 E0
G1 X8.830 Y47.300 F8700.000
G1 E2.00000 F2400.000
;TYPE:Skirt
;WIDTH:0.42
G1 X9.151 Y46.176 E2.05863
G1 X9.498 Y45.357 E2.10325
G1 X10.075 Y44.344 E2.16177
G1 X10.818 Y43.399 E2.22210
G1 X11.441 Y42.782 E2.26610
G1 X12.384 Y42.048 E2.32609
G1 X13.424 Y41.464 E2.38596
G1 X14.247 Y41.127 E2.43059
G1 X15.460 Y40.799 E2.49364
G1 X16.797 Y40.659 E2.56112
G1 X29.006 Y40.655 E3.17384
G1 X30.198 Y40.745 E3.23380
G1 X31.063 Y40.918 E3.27811
G1 X235.070 Y96.920 E13.89511
G1 X236.222 Y97.302 E13.95601
G1 X237.335 Y97.872 E14.01880
G1 X238.028 Y98.346 E14.06094
G1 X238.909 Y99.108 E14.11937
G1 X239.669 Y99.990 E14.17781
G1 X240.143 Y100.690 E14.22025
G1 X240.684 Y101.747 E14.27982
G1 X241.045 Y102.809 E14.33611
G1 X241.234 Y103.652 E14.37949
G1 X241.339 Y104.736 E14.43413
G1 X241.344 Y161.124 E17.26404
G1 X241.244 Y162.278 E17.32213
G1 X241.058 Y163.147 E17.36676
G1 X240.686 Y164.250 E17.42520
G1 X240.128 Y165.335 E17.48642
G1 X239.662 Y166.019 E17.52793
G1 X238.910 Y166.891 E17.58573
G1 X238.039 Y167.646 E17.64355
G1 X237.358 Y168.114 E17.68506
G1 X236.435 Y168.603 E17.73747
G1 X235.646 Y168.907 E17.77991
G1 X234.583 Y169.193 E17.83515
G1 X233.427 Y169.330 E17.89358
G1 X184.481 Y169.345 E20.34995
G1 X182.824 Y169.175 E20.43357
G1 X14.789 Y119.040 E29.23390
G1 X13.732 Y118.678 E29.28994
G1 X12.665 Y118.128 E29.35024
G1 X11.976 Y117.658 E29.39206
G1 X11.100 Y116.901 E29.45018
G1 X10.343 Y116.025 E29.50830
G1 X9.873 Y115.336 E29.55012
G1 X9.325 Y114.275 E29.61009
G1 X8.967 Y113.232 E29.66542
G1 X8.774 Y112.396 E29.70848
G1 X8.665 Y111.345 E29.76150
G1 X8.655 Y48.981 E32.89128
G1 X8.824 Y47.359 E32.97313
G1 E30.97313
G92 E0
G1 X226.100 Y111.900 F8700.000
G1 E2.00000 F2400.000
;TYPE:Perimeter
G1 X187.400 Y111.900 E3.94217
G1 X187.400 Y160.946 E6.40358
G1 X187.378 Y161.175 E6.41511
G1 X187.327 Y161.342 E6.42391
G1 X187.244 Y161.497 E6.43272
G1 X187.133 Y161.633 E6.44152
G1 X186.997 Y161.744 E6.45032
G1 X186.842 Y161.827 E6.45913
G1 X186.675 Y161.878 E6.46793
G1 X186.446 Y161.900 E6.47946
G1 X184.554 Y161.900 E6.57441
G1 X184.325 Y161.878 E6.58594
G1 X184.158 Y161.827 E6.59474
G1 X184.003 Y161.744 E6.60355
G1 X183.867 Y161.633 E6.61235
G1 X183.756 Y161.497 E6.62116
G1 X183.673 Y161.342 E6.62996
G1 X183.622 Y161.175 E6.63876
G1 X183.600 Y160.946 E6.65029
G1 X183.600 Y122.973 E8.55600
G1 X183.548 Y121.912 E8.60932
G1 X183.388 Y120.834 E8.66399
G1 X183.123 Y119.778 E8.71866
G1 X182.756 Y118.752 E8.77334
G1 X182.290 Y117.767 E8.82801
G1 X181.730 Y116.833 E8.88268
G1 X181.081 Y115.958 E8.93736
G1 X180.350 Y115.150 E8.99203
G1 X179.542 Y114.419 E9.04670
G1 X178.680 Y113.779 E9.10056
G1 X177.734 Y113.210 E9.15601
G1 X176.748 Y112.744 E9.21072
G1 X175.722 Y112.377 E9.26539
G1 X174.666 Y112.112 E9.32006
G1 X173.588 Y111.952 E9.37474
G1 X172.527 Y111.900 E9.42805
G1 X17.054 Y111.900 E17.23061
G1 X16.825 Y111.878 E17.24214
G1 X16.658 Y111.827 E17.25094
G1 X16.503 Y111.744 E17.25974
G1 X16.367 Y111.633 E17.26855
G1 X16.256 Y111.497 E17.27735
G1 X16.173 Y111.342 E17.28616
G1 X16.122 Y111.175 E17.29496
G1 X16.100 Y110.946 E17.30649
G1 X16.100 Y105.054 E17.60218
G1 X16.122 Y104.825 E17.61371
G1 X16.173 Y104.658 E17.62251
G1 X16.256 Y104.503 E17.63132
G1 X16.367 Y104.367 E17.64012
G1 X16.503 Y104.256 E17.64893
G1 X16.658 Y104.173 E17.65773
G1 X16.825 Y104.122 E17.66653
G1 X17.054 Y104.100 E17.67806
G1 X23.054 Y104.100 E17.97918
G1 X23.606 Y104.045 E18.00700
G1 X24.188 Y103.869 E18.03755
G1 X24.725 Y103.582 E18.06810
G1 X25.196 Y103.196 E18.09865
G1 X25.582 Y102.725 E18.12920
G1 X25.869 Y102.188 E18.15974
G1 X26.045 Y101.606 E18.19029
G1 X26.100 Y101.054 E18.21812
G1 X26.100 Y54.946 E20.53209
G1 X26.045 Y54.394 E20.55992
G1 X25.869 Y53.812 E20.59047
G1 X25.582 Y53.275 E20.62101
G1 X25.196 Y52.804 E20.65156
G1 X24.725 Y52.418 E20.68211
G1 X24.188 Y52.131 E20.71266
G1 X23.606 Y51.955 E20.74321
G1 X23.054 Y51.900 E20.77103
G1 X17.054 Y51.900 E21.07215
G1 X16.825 Y51.878 E21.08368
G1 X16.658 Y51.827 E21.09248
G1 X16.503 Y51.744 E21.10128
G1 X16.367 Y51.633 E21.11009
G1 X16.256 Y51.497 E21.11889
G1 X16.173 Y51.342 E21.12770
G1 X16.122 Y51.175 E21.13650
G1 X16.100 Y50.946 E21.14803
G1 X16.100 Y49.054 E21.24298
G1 X16.122 Y48.825 E21.25451
G1 X16.173 Y48.658 E21.26331
G1 X16.256 Y48.503 E21.27212
G1 X16.367 Y48.367 E21.28092
G1 X16.503 Y48.256 E21.28972
G1 X16.658 Y48.173 E21.29853
G1 X16.825 Y48.122 E21.30733
G1 X17.054 Y48.100 E21.31886
G1 X28.946 Y48.100 E21.91567
G1 X29.175 Y48.122 E21.92720
G1 X29.342 Y48.173 E21.93600
G1 X29.497 Y48.256 E21.94481
G1 X29.633 Y48.367 E21.95361
G1 X29.744 Y48.503 E21.96241
G1 X29.827 Y48.658 E21.97122
G1 X29.878 Y48.825 E21.98002
G1 X29.900 Y49.054 E21.99155
G1 X29.900 Y93.027 E24.19838
G1 X29.952 Y94.088 E24.25169
G1 X30.112 Y95.166 E24.30637
G1 X30.377 Y96.222 E24.36104
G1 X30.744 Y97.248 E24.41571
G1 X31.210 Y98.233 E24.47038
G1 X31.770 Y99.167 E24.52506
G1 X32.419 Y100.042 E24.57973
G1 X33.150 Y100.850 E24.63440
G1 X33.958 Y101.581 E24.68908
G1 X34.833 Y102.230 E24.74375
G1 X35.767 Y102.790 E24.79842
G1 X36.752 Y103.256 E24.85310
G1 X37.778 Y103.623 E24.90777
G1 X38.834 Y103.888 E24.96244
G1 X39.912 Y104.048 E25.01712
G1 X40.973 Y104.100 E25.07043
G1 X232.946 Y104.100 E34.70477
G1 X233.175 Y104.122 E34.71630
G1 X233.342 Y104.173 E34.72510
G1 X233.497 Y104.256 E34.73391
G1 X233.633 Y104.367 E34.74271
G1 X233.744 Y104.503 E34.75152
G1 X233.827 Y104.658 E34.76032
G1 X233.878 Y104.825 E34.76913
G1 X233.900 Y105.054 E34.78065
G1 X233.900 Y160.946 E37.58564
G1 X233.878 Y161.175 E37.59717
G1 X233.827 Y161.342 E37.60597
G1 X233.744 Y161.497 E37.61478
G1 X233.633 Y161.633 E37.62358
G1 X233.497 Y161.744 E37.63239
G1 X233.342 Y161.827 E37.64119
G1 X233.175 Y161.878 E37.65000
G1 X232.946 Y161.900 E37.66152
G1 X227.054 Y161.900 E37.95722
G1 X226.825 Y161.878 E37.96875
G1 X226.658 Y161.827 E37.97755
G1 X226.503 Y161.744 E37.98635
G1 X226.367 Y161.633 E37.99516
G1 X226.256 Y161.497 E38.00396
G1 X226.173 Y161.342 E38.01277
G1 X226.122 Y161.175 E38.02157
G1 X226.100 Y160.946 E38.03310
G1 X226.100 Y111.960 E40.49149
G1 X225.755 Y112.245 F8700.000
G1 F2400.000
G1 X187.745 Y112.245 E42.39905
G1 X187.745 Y160.963 E44.84400
G1 X187.718 Y161.242 E44.85808
G1 X187.647 Y161.475 E44.87029
G1 X187.532 Y161.690 E44.88251
G1 X187.378 Y161.878 E44.89472
G1 X187.190 Y162.032 E44.90693
G1 X186.975 Y162.147 E44.91915
G1 X186.742 Y162.218 E44.93136
G1 X186.463 Y162.245 E44.94545
G1 X184.537 Y162.245 E45.04210
G1 X184.258 Y162.218 E45.05618
G1 X184.025 Y162.147 E45.06839
G1 X183.810 Y162.032 E45.08061
G1 X183.622 Y161.878 E45.09282
G1 X183.468 Y161.690 E45.10504
G1 X183.353 Y161.475 E45.11725
G1 X183.282 Y161.242 E45.12946
G1 X183.255 Y160.963 E45.14355
G1 X183.255 Y122.981 E47.04968
G1 X183.204 Y121.946 E47.10172
G1 X183.049 Y120.902 E47.15469
G1 X182.793 Y119.878 E47.20767
G1 X182.437 Y118.884 E47.26064
G1 X181.986 Y117.930 E47.31361
G1 X181.443 Y117.024 E47.36658
G1 X181.129 Y116.600 E47.39307
G1 X180.814 Y116.177 E47.41956
G1 X180.106 Y115.394 E47.47253
G1 X179.323 Y114.686 E47.52550
G1 X178.488 Y114.066 E47.57767
G1 X177.571 Y113.514 E47.63142
G1 X176.616 Y113.063 E47.68442
G1 X175.622 Y112.707 E47.73739
G1 X174.598 Y112.451 E47.79036
G1 X173.554 Y112.296 E47.84333
G1 X172.519 Y112.245 E47.89537
G1 X17.037 Y112.245 E55.69835
G1 X16.758 Y112.218 E55.71244
G1 X16.525 Y112.147 E55.72465
G1 X16.310 Y112.032 E55.73686
G1 X16.122 Y111.878 E55.74908
G1 X15.968 Y111.690 E55.76129
G1 X15.853 Y111.475 E55.77350
G1 X15.782 Y111.242 E55.78572
G1 X15.755 Y110.963 E55.79980
G1 X15.755 Y105.037 E56.09719
G1 X15.782 Y104.758 E56.11128
G1 X15.853 Y104.525 E56.12349
G1 X15.968 Y104.310 E56.13571
G1 X16.122 Y104.122 E56.14792
G1 X16.310 Y103.968 E56.16013
G1 X16.525 Y103.853 E56.17235
G1 X16.758 Y103.782 E56.18456
G1 X17.037 Y103.755 E56.19864
G1 X23.037 Y103.755 E56.49976
G1 X23.538 Y103.706 E56.52503
G1 X24.056 Y103.549 E56.55217
G1 X24.533 Y103.294 E56.57931
G1 X24.951 Y102.951 E56.60645
G1 X25.294 Y102.533 E56.63359
G1 X25.549 Y102.056 E56.66072
G1 X25.706 Y101.538 E56.68786
G1 X25.755 Y101.037 E56.71313
G1 X25.755 Y54.963 E59.02540
G1 X25.706 Y54.462 E59.05067
G1 X25.549 Y53.944 E59.07781
G1 X25.294 Y53.467 E59.10495
G1 X24.951 Y53.049 E59.13209
G1 X24.533 Y52.706 E59.15923
G1 X24.056 Y52.451 E59.18637
G1 X23.538 Y52.294 E59.21351
G1 X23.037 Y52.245 E59.23878
G1 X17.037 Y52.245 E59.53989
G1 X16.758 Y52.218 E59.55398
G1 X16.525 Y52.147 E59.56619
G1 X16.310 Y52.032 E59.57840
G1 X16.122 Y51.878 E59.59062
G1 X15.968 Y51.690 E59.60283
G1 X15.853 Y51.475 E59.61505
G1 X15.782 Y51.242 E59.62726
G1 X15.755 Y50.963 E59.64134
G1 X15.755 Y49.037 E59.73799
G1 X15.782 Y48.758 E59.75208
G1 X15.853 Y48.525 E59.76429
G1 X15.968 Y48.310 E59.77650
G1 X16.122 Y48.122 E59.78872
G1 X16.310 Y47.968 E59.80093
G1 X16.525 Y47.853 E59.81314
G1 X16.758 Y47.782 E59.82536
G1 X17.037 Y47.755 E59.83944
G1 X28.963 Y47.755 E60.43795
G1 X29.242 Y47.782 E60.45203
G1 X29.475 Y47.853 E60.46425
G1 X29.690 Y47.968 E60.47646
G1 X29.878 Y48.122 E60.48867
G1 X30.032 Y48.310 E60.50089
G1 X30.147 Y48.525 E60.51310
G1 X30.218 Y48.758 E60.52532
G1 X30.245 Y49.037 E60.53940
G1 X30.245 Y93.019 E62.74665
G1 X30.296 Y94.054 E62.79869
G1 X30.451 Y95.098 E62.85166
G1 X30.707 Y96.122 E62.90464
G1 X31.063 Y97.116 E62.95761
G1 X31.514 Y98.070 E63.01058
G1 X32.057 Y98.976 E63.06355
G1 X32.686 Y99.823 E63.11652
G1 X33.394 Y100.605 E63.16950
G1 X34.177 Y101.314 E63.22247
G1 X35.024 Y101.943 E63.27544
G1 X35.930 Y102.486 E63.32841
G1 X36.884 Y102.937 E63.38139
G1 X37.878 Y103.293 E63.43436
G1 X38.902 Y103.549 E63.48733
G1 X39.946 Y103.704 E63.54031
G1 X40.981 Y103.755 E63.59235
G1 X232.963 Y103.755 E73.22711
G1 X233.242 Y103.782 E73.24119
G1 X233.475 Y103.853 E73.25341
G1 X233.690 Y103.968 E73.26562
G1 X233.878 Y104.122 E73.27783
G1 X234.032 Y104.310 E73.29005
G1 X234.147 Y104.525 E73.30226
G1 X234.218 Y104.758 E73.31448
G1 X234.245 Y105.037 E73.32856
G1 X234.245 Y160.963 E76.13525
G1 X234.218 Y161.242 E76.14933
G1 X234.147 Y161.475 E76.16155
G1 X234.032 Y161.690 E76.17376
G1 X233.878 Y161.878 E76.18597
G1 X233.690 Y162.032 E76.19819
G1 X233.475 Y162.147 E76.21040
G1 X233.242 Y162.218 E76.22262
G1 X232.963 Y162.245 E76.23670
G1 X227.037 Y162.245 E76.53409
G1 X226.758 Y162.218 E76.54818
G1 X226.525 Y162.147 E76.56039
G1 X226.310 Y162.032 E76.57260
G1 X226.122 Y161.878 E76.58482
G1 X225.968 Y161.690 E76.59703
G1 X225.853 Y161.475 E76.60924
G1 X225.782 Y161.242 E76.62146
G1 X225.755 Y160.963 E76.63554
G1 X225.755 Y112.305 E79.07748
G1 X225.410 Y112.590 F8700.000
;TYPE:External perimeter
G1 F2400.000
G1 X188.090 Y112.590 E80.95042
G1 X188.090 Y160.980 E83.37891
G1 X188.058 Y161.310 E83.39554
G1 X187.967 Y161.608 E83.41117
G1 X187.820 Y161.882 E83.42679
G1 X187.623 Y162.123 E83.44241
G1 X187.382 Y162.320 E83.45804
G1 X187.108 Y162.467 E83.47366
G1 X186.810 Y162.558 E83.48928
G1 X186.480 Y162.590 E83.50592
G1 X184.520 Y162.590 E83.60427
G1 X184.190 Y162.558 E83.62091
G1 X183.892 Y162.467 E83.63653
G1 X183.618 Y162.320 E83.65216
G1 X183.377 Y162.123 E83.66778
G1 X183.180 Y161.882 E83.68340
G1 X183.033 Y161.608 E83.69903
G1 X182.942 Y161.310 E83.71465
G1 X182.910 Y160.980 E83.73129
G1 X182.910 Y122.990 E85.63785
G1 X182.860 Y121.980 E85.68861
G1 X182.710 Y120.969 E85.73989
G1 X182.462 Y119.978 E85.79116
G1 X182.118 Y119.016 E85.84243
G1 X181.681 Y118.093 E85.89370
G1 X181.156 Y117.216 E85.94497
G1 X180.852 Y116.806 E85.97061
G1 X180.547 Y116.396 E85.99624
G1 X179.861 Y115.639 E86.04752
G1 X179.104 Y114.953 E86.09879
G1 X178.296 Y114.353 E86.14927
G1 X177.408 Y113.819 E86.20132
G1 X176.484 Y113.382 E86.25260
G1 X175.522 Y113.038 E86.30387
G1 X174.531 Y112.790 E86.35514
G1 X173.520 Y112.640 E86.40642
G1 X172.510 Y112.590 E86.45718
G1 X17.020 Y112.590 E94.26059
G1 X16.690 Y112.558 E94.27722
G1 X16.392 Y112.467 E94.29285
G1 X16.118 Y112.320 E94.30847
G1 X15.877 Y112.123 E94.32409
G1 X15.680 Y111.882 E94.33972
G1 X15.533 Y111.608 E94.35534
G1 X15.442 Y111.310 E94.37096
G1 X15.410 Y110.980 E94.38760
G1 X15.410 Y105.020 E94.68670
G1 X15.442 Y104.690 E94.70334
G1 X15.533 Y104.392 E94.71896
G1 X15.680 Y104.118 E94.73458
G1 X15.877 Y103.877 E94.75020
G1 X16.118 Y103.680 E94.76583
G1 X16.392 Y103.533 E94.78145
G1 X16.690 Y103.442 E94.79707
G1 X17.020 Y103.410 E94.81371
G1 X23.020 Y103.410 E95.11483
G1 X23.471 Y103.366 E95.13754
G1 X23.923 Y103.228 E95.16127
G1 X24.340 Y103.005 E95.18500
G1 X24.706 Y102.706 E95.20873
G1 X25.005 Y102.340 E95.23246
G1 X25.228 Y101.923 E95.25619
G1 X25.366 Y101.471 E95.27992
G1 X25.410 Y101.020 E95.30263
G1 X25.410 Y54.980 E97.61321
G1 X25.366 Y54.529 E97.63592
G1 X25.228 Y54.077 E97.65965
G1 X25.005 Y53.660 E97.68338
G1 X24.706 Y53.294 E97.70711
G1 X24.340 Y52.995 E97.73084
G1 X23.923 Y52.772 E97.75457
G1 X23.471 Y52.634 E97.77830
G1 X23.020 Y52.590 E97.80101
G1 X17.020 Y52.590 E98.10213
G1 X16.690 Y52.558 E98.11877
G1 X16.392 Y52.467 E98.13439
G1 X16.118 Y52.320 E98.15001
G1 X15.877 Y52.123 E98.16563
G1 X15.680 Y51.882 E98.18126
G1 X15.533 Y51.608 E98.19688
G1 X15.442 Y51.310 E98.21250
G1 X15.410 Y50.980 E98.22914
G1 X15.410 Y49.020 E98.32749
G1 X15.442 Y48.690 E98.34413
G1 X15.533 Y48.392 E98.35975
G1 X15.680 Y48.118 E98.37538
G1 X15.877 Y47.877 E98.39100
G1 X16.118 Y47.680 E98.40663
G1 X16.392 Y47.533 E98.42225
G1 X16.690 Y47.442 E98.43787
G1 X17.020 Y47.410 E98.45451
G1 X28.980 Y47.410 E99.05472
G1 X29.310 Y47.442 E99.07136
G1 X29.608 Y47.533 E99.08698
G1 X29.882 Y47.680 E99.10261
G1 X30.123 Y47.877 E99.11823
G1 X30.320 Y48.118 E99.13385
G1 X30.467 Y48.392 E99.14947
G1 X30.558 Y48.690 E99.16510
G1 X30.590 Y49.020 E99.18174
G1 X30.590 Y93.010 E101.38941
G1 X30.640 Y94.020 E101.44018
G1 X30.790 Y95.031 E101.49145
G1 X31.038 Y96.022 E101.54272
G1 X31.382 Y96.984 E101.59399
G1 X31.819 Y97.907 E101.64526
G1 X32.344 Y98.784 E101.69654
G1 X32.953 Y99.604 E101.74781
G1 X33.639 Y100.361 E101.79908
G1 X34.396 Y101.047 E101.85035
G1 X35.216 Y101.656 E101.90162
G1 X36.093 Y102.181 E101.95289
G1 X37.016 Y102.618 E102.00417
G1 X37.978 Y102.962 E102.05544
G1 X38.969 Y103.210 E102.10671
G1 X39.980 Y103.360 E102.15798
G1 X40.990 Y103.410 E102.20875
G1 X232.980 Y103.410 E111.84394
G1 X233.310 Y103.442 E111.86058
G1 X233.608 Y103.533 E111.87620
G1 X233.882 Y103.680 E111.89182
G1 X234.123 Y103.877 E111.90745
G1 X234.320 Y104.118 E111.92307
G1 X234.467 Y104.392 E111.93869
G1 X234.558 Y104.690 E111.95432
G1 X234.590 Y105.020 E111.97095
G1 X234.590 Y160.980 E114.77934
G1 X234.558 Y161.310 E114.79598
G1 X234.467 Y161.608 E114.81161
G1 X234.320 Y161.882 E114.82723
G1 X234.123 Y162.123 E114.84285
G1 X233.882 Y162.320 E114.85848
G1 X233.608 Y162.467 E114.87410
G1 X233.310 Y162.558 E114.88972
G1 X232.980 Y162.590 E114.90636
G1 X227.020 Y162.590 E115.20545
G1 X226.690 Y162.558 E115.22209
G1 X226.392 Y162.467 E115.23772
G1 X226.118 Y162.320 E115.25334
G1 X225.877 Y162.123 E115.26896
G1 X225.680 Y161.882 E115.28459
G1 X225.533 Y161.608 E115.30021
G1 X225.442 Y161.310 E115.31583
G1 X225.410 Y160.980 E115.33247
G1 X225.410 Y112.650 E117.75795
G1 X225.410 Y112.190 F8700.000
G1 E115.75795 F2400.000
G92 E0
G1 X233.797 Y105.387 F8700.000
G1 E2.00000 F2400.000
;TYPE:Solid infill
;WIDTH:0.420632
G1 X232.768 Y104.358 E2.07312
G1 X232.280 Y104.358 E2.09768
G1 X233.642 Y105.720 E2.19451
G1 X233.642 Y106.209 E2.21907
G1 X231.791 Y104.358 E2.35064
G1 X231.303 Y104.358 E2.37521
