; generated by PrusaSlicer 2.3.0+win64 on 2021-04-01 at 05:30:15 UTC

; 

; external perimeters extrusion width = 0.45mm
; perimeters extrusion width = 0.45mm
; infill extrusion width = 0.45mm
; solid infill extrusion width = 0.45mm
; top infill extrusion width = 0.40mm
; first layer extrusion width = 0.42mm

M107
M190 S60 ; set bed temperature and wait for it to be reached
M104 S207 ; set temperature
;TYPE:Custom
G28 ; home all axes
G1 Z5 F5000 ; lift nozzle
M109 S207 ; set temperature and wait for it to be reached
G21 ; set units to millimeters
G90 ; use absolute coordinates
M82 ; use absolute distances for extrusion
G92 E0
; Filament gcode
;LAYER_CHANGE
;Z:0.35
;HEIGHT:0.35
G1 Z0.350 F7800.000
G1 E-2.00000 F2400.000
G92 E0
G1 X12.969 Y23.567 F7800.000
G1 E2.00000 F2400.000
;TYPE:Skirt
;WIDTH:0.42
G1 F1800.000
G1 X14.022 Y22.566 E2.07292
G1 X14.878 Y22.024 E2.12377
G1 X15.809 Y21.624 E2.17462
G1 X16.792 Y21.378 E2.22548
G1 X17.802 Y21.292 E2.27633
G1 X232.170 Y21.292 E13.03457
G1 X233.388 Y21.411 E13.09600
G1 X234.561 Y21.762 E13.15742
G1 X235.644 Y22.331 E13.21885
G1 X236.602 Y23.103 E13.28059
G1 X237.390 Y24.040 E13.34202
G1 X237.984 Y25.110 E13.40345
G1 X238.360 Y26.275 E13.46488
G1 X238.507 Y27.490 E13.52631
G1 X238.508 Y182.463 E21.30377
G1 X238.322 Y183.892 E21.37607
G1 X237.818 Y185.241 E21.44837
G1 X237.023 Y186.443 E21.52067
G1 X235.978 Y187.434 E21.59297
G1 X235.122 Y187.976 E21.64382
G1 X234.191 Y188.376 E21.69468
G1 X233.208 Y188.622 E21.74553
G1 X232.198 Y188.708 E21.79638
G1 X17.799 Y188.708 E32.55618
G1 X16.351 Y188.532 E32.62941
G1 X14.986 Y188.032 E32.70233
G1 X13.767 Y187.231 E32.77556
G1 X12.766 Y186.178 E32.84848
G1 X12.226 Y185.327 E32.89902
G1 X11.828 Y184.402 E32.94956
G1 X11.580 Y183.420 E33.00041
G1 X11.492 Y182.417 E33.05095
G1 X11.492 Y27.587 E40.82124
G1 X11.670 Y26.145 E40.89416
G1 X12.171 Y24.781 E40.96708
G1 X12.936 Y23.617 E41.03699
G1 E39.03699 F2400.000
G92 E0
G1 X95.403 Y95.520 F7800.000
G1 E2.00000 F2400.000
;TYPE:Perimeter
G1 F1800.000
G1 X108.962 Y95.520 E2.68049
G1 X108.962 Y109.080 E3.36097
G1 X95.403 Y109.080 E4.04146
G1 X95.403 Y95.580 E4.71893
G1 X95.058 Y95.175 F7800.000
G1 F1800.000
G1 X109.307 Y95.175 E5.43404
G1 X109.307 Y109.424 E6.14914
G1 X95.058 Y109.424 E6.86424
G1 X95.058 Y95.235 E7.57634
G1 X94.713 Y94.830 F7800.000
;TYPE:External perimeter
G1 F1800.000
G1 X109.652 Y94.830 E8.32606
G1 X109.652 Y109.769 E9.07578
G1 X94.713 Y109.769 E9.82550
G1 X94.713 Y94.890 E10.57221
G1 X95.099 Y94.934 F7800.000
G1 E8.57221 F2400.000
G92 E0
G1 X108.149 Y95.624 F7800.000
G1 E2.00000 F2400.000
;TYPE:Solid infill
;WIDTH:0.425701
G1 F1800.000
G1 X108.704 Y96.178 E2.03998
G1 X108.704 Y96.674 E2.06527
G1 X107.809 Y95.779 E2.12982
G1 X107.313 Y95.779 E2.15511
G1 X108.704 Y97.169 E2.25544
G1 X108.704 Y97.665 E2.28073
G1 X106.817 Y95.779 E2.41682
G1 X106.321 Y95.779 E2.44212
G1 X108.704 Y98.161 E2.61398
G1 X108.704 Y98.657 E2.63927
G1 X105.826 Y95.779 E2.84691
G1 X105.330 Y95.779 E2.87220
G1 X108.704 Y99.153 E3.11560
G1 X108.704 Y99.648 E3.14090
G1 X104.834 Y95.779 E3.42007
G1 X104.338 Y95.779 E3.44537
G1 X108.704 Y100.144 E3.76032
G1 X108.704 Y100.640 E3.78561
G1 X103.842 Y95.779 E4.13633
G1 X103.347 Y95.779 E4.16162
G1 X108.704 Y101.136 E4.54811
G1 X108.704 Y101.632 E4.57340
G1 X102.851 Y95.779 E4.99566
G1 X102.355 Y95.779 E5.02096
G1 X108.704 Y102.128 E5.47899
G1 X108.704 Y102.623 E5.50428
G1 X101.859 Y95.779 E5.99809
G1 X101.363 Y95.779 E6.02338
G1 X108.704 Y103.119 E6.55295
G1 X108.704 Y103.615 E6.57825
G1 X100.867 Y95.779 E7.14359
G1 X100.372 Y95.779 E7.16888
G1 X108.704 Y104.111 E7.77000
G1 X108.704 Y104.607 E7.79529
G1 X99.876 Y95.779 E8.43218
G1 X99.380 Y95.779 E8.45747
G1 X108.704 Y105.102 E9.13013
G1 X108.704 Y105.598 E9.15542
G1 X98.884 Y95.779 E9.86385
G1 X98.388 Y95.779 E9.88915
G1 X108.704 Y106.094 E10.63335
G1 X108.704 Y106.590 E10.65864
G1 X97.893 Y95.779 E11.43861
G1 X97.397 Y95.779 E11.46390
G1 X108.704 Y107.086 E12.27964
G1 X108.704 Y107.581 E12.30494
G1 X96.901 Y95.779 E13.15645
G1 X96.405 Y95.779 E13.18174
G1 X108.704 Y108.077 E14.06903
G1 X108.704 Y108.573 E14.09432
G1 X95.909 Y95.779 E15.01738
G1 X95.662 Y95.779 E15.03002
G1 X95.662 Y96.027 E15.04267
G1 X108.456 Y108.821 E15.96572
G1 X107.960 Y108.821 E15.99101
G1 X95.662 Y96.523 E16.87829
G1 X95.662 Y97.018 E16.90358
G1 X107.464 Y108.821 E17.75509
G1 X106.968 Y108.821 E17.78039
G1 X95.662 Y97.514 E18.59612
G1 X95.662 Y98.010 E18.62142
G1 X106.472 Y108.821 E19.40138
G1 X105.977 Y108.821 E19.42668
G1 X95.662 Y98.506 E20.17087
G1 X95.662 Y99.002 E20.19616
G1 X105.481 Y108.821 E20.90459
G1 X104.985 Y108.821 E20.92988
G1 X95.662 Y99.498 E21.60253
G1 X95.662 Y99.993 E21.62783
G1 X104.489 Y108.821 E22.26471
G1 X103.993 Y108.821 E22.29000
G1 X95.662 Y100.489 E22.89111
G1 X95.662 Y100.985 E22.91641
G1 X103.498 Y108.821 E23.48175
G1 X103.002 Y108.821 E23.50704
G1 X95.662 Y101.481 E24.03661
G1 X95.662 Y101.977 E24.06190
G1 X102.506 Y108.821 E24.55570
G1 X102.010 Y108.821 E24.58099
G1 X95.662 Y102.472 E25.03902
G1 X95.662 Y102.968 E25.06431
G1 X101.514 Y108.821 E25.48657
G1 X101.018 Y108.821 E25.51186
G1 X95.662 Y103.464 E25.89835
G1 X95.662 Y103.960 E25.92364
G1 X100.523 Y108.821 E26.27435
G1 X100.027 Y108.821 E26.29965
G1 X95.662 Y104.456 E26.61459
G1 X95.662 Y104.951 E26.63988
G1 X99.531 Y108.821 E26.91905
G1 X99.035 Y108.821 E26.94435
G1 X95.662 Y105.447 E27.18775
G1 X95.662 Y105.943 E27.21304
G1 X98.539 Y108.821 E27.42067
G1 X98.044 Y108.821 E27.44597
G1 X95.662 Y106.439 E27.61782
G1 X95.662 Y106.935 E27.64312
G1 X97.548 Y108.821 E27.77920
G1 X97.052 Y108.821 E27.80450
G1 X95.662 Y107.430 E27.90482
G1 X95.662 Y107.926 E27.93011
G1 X96.556 Y108.821 E27.99465
G1 X96.060 Y108.821 E28.01995
G1 X95.506 Y108.267 E28.05992
G1 E26.05992 F2400.000
G92 E0
G1 X108.106 Y87.483 F7800.000
G1 E2.00000 F2400.000
;TYPE:Perimeter
;WIDTH:0.42
G1 F1800.000
G1 X108.106 Y73.923 E2.68049
G1 X121.666 Y73.923 E3.36097
G1 X121.666 Y87.483 E4.04146
G1 X108.166 Y87.483 E4.71893
G1 X107.761 Y87.828 F7800.000
G1 F1800.000
G1 X107.761 Y73.579 E5.43404
G1 X122.011 Y73.579 E6.14914
G1 X122.011 Y87.828 E6.86424
G1 X107.821 Y87.828 E7.57634
G1 X107.417 Y88.173 F7800.000
;TYPE:External perimeter
G1 F1800.000
G1 X107.417 Y73.234 E8.32606
G1 X122.355 Y73.234 E9.07578
G1 X122.355 Y88.173 E9.82550
G1 X107.477 Y88.173 E10.57221
G1 X107.520 Y87.786 F7800.000
G1 E8.57221 F2400.000
G92 E0
G1 X120.853 Y74.027 F7800.000
G1 E2.00000 F2400.000
;TYPE:Solid infill
;WIDTH:0.425701
G1 F1800.000
G1 X121.407 Y74.581 E2.03998
G1 X121.407 Y75.077 E2.06527
G1 X120.512 Y74.182 E2.12982
G1 X120.016 Y74.182 E2.15511
G1 X121.407 Y75.573 E2.25544
G1 X121.407 Y76.068 E2.28073
G1 X119.521 Y74.182 E2.41682
G1 X119.025 Y74.182 E2.44212
G1 X121.407 Y76.564 E2.61398
G1 X121.407 Y77.060 E2.63927
G1 X118.529 Y74.182 E2.84691
G1 X118.033 Y74.182 E2.87220
G1 X121.407 Y77.556 E3.11560
G1 X121.407 Y78.052 E3.14090
G1 X117.537 Y74.182 E3.42007
G1 X117.042 Y74.182 E3.44537
G1 X121.407 Y78.547 E3.76032
G1 X121.407 Y79.043 E3.78561
G1 X116.546 Y74.182 E4.13633
G1 X116.050 Y74.182 E4.16162
G1 X121.407 Y79.539 E4.54811
G1 X121.407 Y80.035 E4.57340
G1 X115.554 Y74.182 E4.99566
G1 X115.058 Y74.182 E5.02096
G1 X121.407 Y80.531 E5.47899
G1 X121.407 Y81.027 E5.50428
G1 X114.563 Y74.182 E5.99809
G1 X114.067 Y74.182 E6.02338
G1 X121.407 Y81.522 E6.55295
G1 X121.407 Y82.018 E6.57825
G1 X113.571 Y74.182 E7.14359
G1 X113.075 Y74.182 E7.16888
G1 X121.407 Y82.514 E7.77000
G1 X121.407 Y83.010 E7.79529
G1 X112.579 Y74.182 E8.43218
G1 X112.084 Y74.182 E8.45747
G1 X121.407 Y83.506 E9.13013
G1 X121.407 Y84.001 E9.15542
G1 X111.588 Y74.182 E9.86385
G1 X111.092 Y74.182 E9.88915
G1 X121.407 Y84.497 E10.63335
G1 X121.407 Y84.993 E10.65864
G1 X110.596 Y74.182 E11.43861
G1 X110.100 Y74.182 E11.46390
G1 X121.407 Y85.489 E12.27964
G1 X121.407 Y85.985 E12.30494
G1 X109.604 Y74.182 E13.15645
G1 X109.109 Y74.182 E13.18174
G1 X121.407 Y86.480 E14.06903
G1 X121.407 Y86.976 E14.09432
G1 X108.613 Y74.182 E15.01738
G1 X108.365 Y74.182 E15.03002
G1 X108.365 Y74.430 E15.04267
G1 X121.159 Y87.224 E15.96572
G1 X120.663 Y87.224 E15.99101
G1 X108.365 Y74.926 E16.87829
G1 X108.365 Y75.422 E16.90358
G1 X120.167 Y87.224 E17.75509
G1 X119.672 Y87.224 E17.78039
G1 X108.365 Y75.917 E18.59612
G1 X108.365 Y76.413 E18.62142
G1 X119.176 Y87.224 E19.40138
G1 X118.680 Y87.224 E19.42668
G1 X108.365 Y76.909 E20.17087
G1 X108.365 Y77.405 E20.19616
G1 X118.184 Y87.224 E20.90459
G1 X117.688 Y87.224 E20.92988
G1 X108.365 Y77.901 E21.60253
G1 X108.365 Y78.397 E21.62783
G1 X117.193 Y87.224 E22.26471
G1 X116.697 Y87.224 E22.29000
G1 X108.365 Y78.892 E22.89111
G1 X108.365 Y79.388 E22.91641
G1 X116.201 Y87.224 E23.48175
G1 X115.705 Y87.224 E23.50704
G1 X108.365 Y79.884 E24.03661
G1 X108.365 Y80.380 E24.06190
G1 X115.209 Y87.224 E24.55570
G1 X114.714 Y87.224 E24.58099
G1 X108.365 Y80.876 E25.03902
G1 X108.365 Y81.371 E25.06431
G1 X114.218 Y87.224 E25.48657
G1 X113.722 Y87.224 E25.51186
G1 X108.365 Y81.867 E25.89835
G1 X108.365 Y82.363 E25.92364
G1 X113.226 Y87.224 E26.27435
G1 X112.730 Y87.224 E26.29965
G1 X108.365 Y82.859 E26.61459
G1 X108.365 Y83.355 E26.63988
G1 X112.234 Y87.224 E26.91905
G1 X111.739 Y87.224 E26.94435
G1 X108.365 Y83.850 E27.18775
G1 X108.365 Y84.346 E27.21304
G1 X111.243 Y87.224 E27.42067
G1 X110.747 Y87.224 E27.44597
G1 X108.365 Y84.842 E27.61782
G1 X108.365 Y85.338 E27.64312
G1 X110.251 Y87.224 E27.77920
G1 X109.755 Y87.224 E27.80450
G1 X108.365 Y85.834 E27.90482
G1 X108.365 Y86.329 E27.93011
G1 X109.260 Y87.224 E27.99465
G1 X108.764 Y87.224 E28.01995
G1 X108.210 Y86.670 E28.05992
G1 E26.05992 F2400.000
G92 E0
G1 X133.620 Y93.605 F7800.000
G1 E2.00000 F2400.000
;TYPE:Perimeter
;WIDTH:0.42
G1 F1800.000
G1 X147.179 Y93.605 E2.68049
G1 X147.179 Y107.165 E3.36097
G1 X133.620 Y107.165 E4.04146
G1 X133.620 Y93.665 E4.71893
G1 X133.275 Y93.260 F7800.000
G1 F1800.000
G1 X147.524 Y93.260 E5.43404
G1 X147.524 Y107.509 E6.14914
G1 X133.275 Y107.509 E6.86424
G1 X133.275 Y93.320 E7.57634
G1 X132.930 Y92.915 F7800.000
;TYPE:External perimeter
G1 F1800.000
G1 X147.869 Y92.915 E8.32606
G1 X147.869 Y107.854 E9.07578
G1 X132.930 Y107.854 E9.82550
G1 X132.930 Y92.975 E10.57221
G1 X133.316 Y93.019 F7800.000
G1 E8.57221 F2400.000
G92 E0
G1 X146.366 Y93.709 F7800.000
G1 E2.00000 F2400.000
;TYPE:Solid infill
;WIDTH:0.425701
G1 F1800.000
G1 X146.921 Y94.263 E2.03998
G1 X146.921 Y94.759 E2.06527
G1 X146.026 Y93.864 E2.12982
G1 X145.530 Y93.864 E2.15511
G1 X146.921 Y95.254 E2.25544
G1 X146.921 Y95.750 E2.28073
G1 X145.034 Y93.864 E2.41682
G1 X144.538 Y93.864 E2.44212
G1 X146.921 Y96.246 E2.61398
G1 X146.921 Y96.742 E2.63927
G1 X144.043 Y93.864 E2.84691
G1 X143.547 Y93.864 E2.87220
G1 X146.921 Y97.238 E3.11560
G1 X146.921 Y97.733 E3.14090
G1 X143.051 Y93.864 E3.42007
G1 X142.555 Y93.864 E3.44537
G1 X146.921 Y98.229 E3.76032
G1 X146.921 Y98.725 E3.78561
G1 X142.059 Y93.864 E4.13633
G1 X141.564 Y93.864 E4.16162
G1 X146.921 Y99.221 E4.54811
G1 X146.921 Y99.717 E4.57340
G1 X141.068 Y93.864 E4.99566
G1 X140.572 Y93.864 E5.02096
G1 X146.921 Y100.212 E5.47899
G1 X146.921 Y100.708 E5.50428
G1 X140.076 Y93.864 E5.99809
G1 X139.580 Y93.864 E6.02338
G1 X146.921 Y101.204 E6.55295
G1 X146.921 Y101.700 E6.57825
G1 X139.085 Y93.864 E7.14359
G1 X138.589 Y93.864 E7.16888
G1 X146.921 Y102.196 E7.77000
G1 X146.921 Y102.692 E7.79529
G1 X138.093 Y93.864 E8.43218
G1 X137.597 Y93.864 E8.45747
G1 X146.921 Y103.187 E9.13013
G1 X146.921 Y103.683 E9.15542
G1 X137.101 Y93.864 E9.86385
G1 X136.605 Y93.864 E9.88915
G1 X146.921 Y104.179 E10.63335
G1 X146.921 Y104.675 E10.65864
G1 X136.110 Y93.864 E11.43861
G1 X135.614 Y93.864 E11.46390
G1 X146.921 Y105.171 E12.27964
G1 X146.921 Y105.666 E12.30494
G1 X135.118 Y93.864 E13.15645
G1 X134.622 Y93.864 E13.18174
G1 X146.921 Y106.162 E14.06903
G1 X146.921 Y106.658 E14.09432
G1 X134.126 Y93.864 E15.01738
G1 X133.879 Y93.864 E15.03002
G1 X133.879 Y94.112 E15.04267
G1 X146.673 Y106.906 E15.96572
G1 X146.177 Y106.906 E15.99101
G1 X133.879 Y94.608 E16.87829
G1 X133.879 Y95.103 E16.90358
G1 X145.681 Y106.906 E17.75509
G1 X145.185 Y106.906 E17.78039
G1 X133.879 Y95.599 E18.59612
G1 X133.879 Y96.095 E18.62142
G1 X144.689 Y106.906 E19.40138
G1 X144.194 Y106.906 E19.42668
G1 X133.879 Y96.591 E20.17087
G1 X133.879 Y97.087 E20.19616
G1 X143.698 Y106.906 E20.90459
G1 X143.202 Y106.906 E20.92988
G1 X133.879 Y97.582 E21.60253
G1 X133.879 Y98.078 E21.62783
G1 X142.706 Y106.906 E22.26471
G1 X142.210 Y106.906 E22.29000
G1 X133.879 Y98.574 E22.89111
G1 X133.879 Y99.070 E22.91641
G1 X141.715 Y106.906 E23.48175
G1 X141.219 Y106.906 E23.50704
G1 X133.879 Y99.566 E24.03661
G1 X133.879 Y100.062 E24.06190
G1 X140.723 Y106.906 E24.55570
G1 X140.227 Y106.906 E24.58099
G1 X133.879 Y100.557 E25.03902
G1 X133.879 Y101.053 E25.06431
G1 X139.731 Y106.906 E25.48657
G1 X139.235 Y106.906 E25.51186
G1 X133.879 Y101.549 E25.89835
G1 X133.879 Y102.045 E25.92364
G1 X138.740 Y106.906 E26.27435
G1 X138.244 Y106.906 E26.29965
G1 X133.879 Y102.541 E26.61459
G1 X133.879 Y103.036 E26.63988
G1 X137.748 Y106.906 E26.91905
G1 X137.252 Y106.906 E26.94435
G1 X133.879 Y103.532 E27.18775
G1 X133.879 Y104.028 E27.21304
G1 X136.756 Y106.906 E27.42067
G1 X136.261 Y106.906 E27.44597
G1 X133.879 Y104.524 E27.61782
G1 X133.879 Y105.020 E27.64312
G1 X135.765 Y106.906 E27.77920
G1 X135.269 Y106.906 E27.80450
G1 X133.879 Y105.515 E27.90482
G1 X133.879 Y106.011 E27.93011
G1 X134.773 Y106.906 E27.99465
G1 X134.277 Y106.906 E28.01995
G1 X133.723 Y106.352 E28.05992
G1 E26.05992 F2400.000
G92 E0
G1 X165.595 Y111.338 F7800.000
G1 E2.00000 F2400.000
;TYPE:Perimeter
;WIDTH:0.42
G1 F1800.000
G1 X165.429 Y112.395 E2.05373
G1 X164.995 Y114.465 E2.15983
G1 X164.456 Y116.509 E2.26593
G1 X163.812 Y118.522 E2.37203
G1 X163.065 Y120.500 E2.47813
G1 X162.218 Y122.437 E2.58423
G1 X161.272 Y124.328 E2.69033
G1 X160.230 Y126.168 E2.79643
G1 X159.095 Y127.951 E2.90253
G1 X157.870 Y129.674 E3.00863
G1 X156.557 Y131.332 E3.11473
G1 X155.163 Y132.918 E3.22075
G1 X153.752 Y134.368 E3.32227
G1 X152.108 Y135.892 E3.43478
G1 X150.483 Y137.246 E3.54093
G1 X148.791 Y138.514 E3.64703
G1 X147.036 Y139.693 E3.75313
G1 X145.223 Y140.780 E3.85922
G1 X143.357 Y141.773 E3.96532
G1 X141.441 Y142.668 E4.07142
G1 X139.483 Y143.464 E4.17752
G1 X137.486 Y144.158 E4.28362
G1 X135.456 Y144.748 E4.38972
G1 X133.398 Y145.233 E4.49582
G1 X131.318 Y145.612 E4.60192
G1 X129.221 Y145.883 E4.70803
G1 X127.113 Y146.046 E4.81412
G1 X125.000 Y146.100 E4.92022
G1 X122.887 Y146.046 E5.02632
G1 X120.779 Y145.883 E5.13242
G1 X118.682 Y145.612 E5.23852
G1 X116.602 Y145.233 E5.34462
G1 X114.544 Y144.748 E5.45072
G1 X112.514 Y144.158 E5.55682
G1 X110.517 Y143.464 E5.66292
G1 X108.559 Y142.668 E5.76902
G1 X106.643 Y141.773 E5.87512
G1 X104.776 Y140.780 E5.98124
G1 X102.904 Y139.655 E6.09085
G1 X101.209 Y138.514 E6.19343
G1 X99.517 Y137.246 E6.29951
G1 X97.893 Y135.893 E6.40562
G1 X96.314 Y134.433 E6.51354
G1 X94.838 Y132.919 E6.61968
G1 X93.443 Y131.332 E6.72571
G1 X92.130 Y129.674 E6.83181
G1 X90.905 Y127.951 E6.93791
G1 X89.770 Y126.168 E7.04401
G1 X88.728 Y124.328 E7.15011
G1 X87.782 Y122.437 E7.25621
G1 X86.935 Y120.500 E7.36231
G1 X86.188 Y118.522 E7.46841
G1 X85.544 Y116.509 E7.57451
G1 X85.005 Y114.465 E7.68061
G1 X84.571 Y112.395 E7.78671
G1 X84.244 Y110.307 E7.89281
G1 X84.025 Y108.204 E7.99893
G1 X83.913 Y106.022 E8.10857
G1 X83.915 Y103.907 E8.21469
G1 X84.025 Y101.796 E8.32079
G1 X84.244 Y99.693 E8.42689
G1 X84.571 Y97.605 E8.53299
G1 X85.005 Y95.535 E8.63908
G1 X85.544 Y93.491 E8.74518
G1 X86.188 Y91.478 E8.85127
G1 X86.909 Y89.565 E8.95384
G1 X87.782 Y87.563 E9.06345
G1 X88.728 Y85.672 E9.16958
G1 X89.770 Y83.833 E9.27568
G1 X90.867 Y82.108 E9.37824
G1 X92.130 Y80.327 E9.48784
G1 X93.399 Y78.723 E9.59048
G1 X94.903 Y77.012 E9.70479
G1 X96.314 Y75.567 E9.80616
G1 X97.893 Y74.107 E9.91407
G1 X99.517 Y72.754 E10.02017
G1 X101.209 Y71.486 E10.12627
G1 X102.964 Y70.307 E10.23237
G1 X104.777 Y69.220 E10.33847
G1 X106.643 Y68.227 E10.44457
G1 X108.559 Y67.332 E10.55067
G1 X110.517 Y66.536 E10.65677
G1 X112.514 Y65.842 E10.76287
